assets/img/amazon.svg

<svg fill="none" height="23" viewBox="0 0 121 23" width="121" xmlns="http://www.w3.org/2000/svg"><g fill="#96ff94"><g clip-rule="evenodd" fill-rule="evenodd"><path d="m48.4816 17.9667c-4.5409 3.2666-11.1302 5-16.7978 5-7.9551.0333-15.0907-2.8334-20.5193-7.6334-.4097-.3667-.0341-.9.478-.6 5.8383 3.3334 13.0422 5.3 20.5193 5.3 5.0189 0 10.5498-1.0333 15.637-3.1333.7852-.2667 1.3998.5333.6828 1.0667z"/><path d="m50.3595 15.8667c-.5804-.7334-3.8239-.3334-5.292-.1667-.4438.0667-.5121-.3333-.1024-.6 2.5948-1.7667 6.8625-1.2667 7.3405-.6667.5121.6-.1366 4.7667-2.5606 6.7667-.3756.3-.717.1333-.5804-.2667.5462-1.3333 1.7753-4.3333 1.1949-5.0666z"/><path d="m45.1699 2.50001v-1.733333c0-.266667.2049-.433333.4439-.433333h7.955c.239 0 .4439.166666.4439.433333v1.500003c0 .23333-.2049.56666-.6146 1.1l-4.1312 5.73333c1.5364-.03333 3.1411.2 4.5409.96669.3073.1666.4097.4333.4097.6666v1.8334c0 .2666-.2731.5333-.5804.4-2.4582-1.2667-5.7017-1.4-8.3989 0-.2731.1333-.5804-.1334-.5804-.4v-1.7667c0-.2667 0-.7667.3073-1.19999l4.7798-6.66667h-4.1653c-.2048 0-.4097-.16666-.4097-.43333z"/><path d="m16.1492 13.3333h-2.4241c-.239 0-.4097-.2-.4439-.4v-12.099969c0-.233333.2049-.433333.478-.433333h2.2534c.239 0 .4097.2.4438.4v1.566662h.0342c.5804-1.533329 1.7071-2.233329 3.1752-2.233329 1.5022 0 2.4582.7 3.141 2.233329.5805-1.533329 1.912-2.233329 3.3459-2.233329 1.0243 0 2.1168.4 2.7997 1.333329.7511 1.03334.6145 2.5.6145 3.8v7.63334c0 .2333-.2048.4333-.478.4333h-2.424c-.239 0-.4439-.2-.4439-.4333v-6.43334c0-.5.0342-1.79999-.0683-2.26666-.1707-.8-.7169-1.03334-1.4339-1.03334-.5804 0-1.195.36667-1.434 1.00001-.239.59999-.239 1.63333-.239 2.33333v6.4333c0 .2334-.2048.4334-.478.4334h-2.424c-.239 0-.4439-.2-.4439-.4334v-6.4333c0-1.36667.239-3.33334-1.5022-3.33334-1.7413 0-1.673 1.93334-1.673 3.33334v6.4333c.1025.2-.1024.4-.3755.4z"/><path d="m60.841.133331c3.5849 0 5.531 2.999999 5.531 6.833329 0 3.70004-2.1509 6.63334-5.531 6.63334-3.5166 0-5.4285-3-5.4285-6.76667 0-3.8 1.9461-6.699999 5.4285-6.699999zm.0342 2.466669c-1.7754 0-1.912 2.36666-1.912 3.83333s-.0341 4.63337 1.8778 4.63337c1.8778 0 1.9803-2.53337 1.9803-4.10004 0-1.03333-.0342-2.23333-.3756-3.2-.2731-.83333-.8194-1.16666-1.5705-1.16666z"/><path d="m71.0493 13.3333h-2.4241c-.239 0-.4438-.2-.4438-.4333v-12.133335c.0341-.233334.2049-.4.478-.4h2.2533c.2049 0 .3756.166666.4439.333333v1.866662h.0341c.6829-1.666662 1.6388-2.433329 3.2776-2.433329 1.0926 0 2.151.366667 2.8338 1.433329.6487.96667.6487 2.6.6487 3.76667v7.63337c-.0341.2-.239.3666-.478.3666h-2.424c-.239 0-.4097-.1666-.4439-.3666v-6.60004c0-1.33333.1707-3.26666-1.5022-3.26666-.5804 0-1.1267.36666-1.3998.96666-.3415.73334-.3756 1.46667-.3756 2.3v6.53334c-.0341.2333-.239.4333-.478.4333z"/><path d="m79.619 12.3667c0-.6.5462-1.1 1.1949-1.1s1.195.5 1.195 1.1-.5463 1.1-1.195 1.1-1.1949-.5-1.1949-1.1z"/></g><path d="m105.259 13.3333c-.239 0-.443-.2-.443-.4333v-12.133341c0-.2.204-.4.443-.4h.888c.239 0 .444.166666.478.4v1.766671c.615-1.4 1.81-2.5000048 3.278-2.5000048h.102.103c1.57 0 2.731 1.1333348 3.175 2.8000048.683-1.63334 1.912-2.8000048 3.585-2.8000048h.102.103c1.16 0 2.287.7333338 2.902 1.8666648.58 1.06667.546 2.5.546 3.7v7.30001c0 .2333-.205.4333-.444.4333h-1.058c-.239 0-.41-.1666-.444-.3666v-7.33337c0-.86667.034-1.8-.307-2.56667-.376-.8-1.059-1.3-1.844-1.33333-.854.03333-1.605.63333-2.117 1.46666-.649 1.03334-.649 2-.649 3.2v6.60001c-.034.2-.204.3667-.443.3667h-1.059c-.239 0-.444-.2-.444-.4334v-7.76664c0-.7-.034-1.56667-.375-2.2-.376-.73333-1.093-1.2-1.81-1.23333-.751.03333-1.536.6-1.98 1.26666-.58.83334-.683 1.9-.683 2.96667v6.96664c0 .2334-.205.4334-.444.4334h-1.161z"/><path d="m97.9532 13.5667c-3.4142 0-4.9506-3.4-4.9506-6.83337 0-3.6 1.8095-6.7000048 5.2579-6.7000048h.1024.1024c3.3797 0 5.0187 3.2999948 5.0187 6.7333348 0 3.63334-1.843 6.80004-5.326 6.80004h-.1024zm.2731-1.6334c1.1267-.0333 2.0147-.7333 2.5607-1.8666.478-1.03337.58-2.20004.58-3.30004 0-1.23333-.136-2.5-.717-3.53333-.512-.9-1.4336-1.5-2.3895-1.53334-1.0584.03334-2.0144.73334-2.4924 1.83334-.4438.93333-.5804 2.2-.5804 3.23333 0 1.16666.1707 2.53333.6487 3.53334.4438.9667 1.3657 1.6 2.3899 1.6333z"/><path d="m87.2327 11.8667c1.5364-.0334 2.3558-1.2667 2.6972-2.80002.0683-.2.2049-.33333.4439-.33333h1.0242c.239 0 .478.2.4439.4-.478 2.66665-2.1168 4.46665-4.4385 4.46665h-.1024-.1024c-3.4142 0-4.8823-3.3333-4.8823-6.73332 0-3.36667 1.5022-6.7999991 4.8823-6.7999991h.1024.1024c2.3558 0 4.0629 1.7666691 4.4043 4.4333291 0 .2-.2048.36667-.4097.4h-1.0584c-.239-.03333-.3756-.23333-.4097-.43333-.2731-1.5-1.1267-2.66667-2.5948-2.7-2.3216.06667-2.9703 2.86667-2.9703 5 0 2.03333.5463 5.03332 2.8679 5.10002z"/><path clip-rule="evenodd" d="m38.8194 7.53333c0 .93334.0341 1.7-.4438 2.49997-.3756.6667-.9902 1.0667-1.673 1.0667-.9218 0-1.4681-.7-1.4681-1.7 0-2 1.8437-2.36667 3.5849-2.36667zm2.4241 5.76667c-.1707.1333-.3756.1333-.5804.0667-.8194-.6667-.956-.9667-1.3999-1.5667-1.3315 1.3333-2.2533 1.7-3.9946 1.7-2.0485 0-3.619-1.2333-3.619-3.66667 0-1.93333 1.0584-3.23333 2.5948-3.86666 1.2974-.56667 3.141-.66667 4.5409-.83334v-.3c0-.56666.0341-1.23333-.3073-1.7-.3073-.43333-.8536-.6-1.3657-.6-.9218 0-1.7412.46667-1.9461 1.43334-.0341.2-.2048.43333-.4097.43333l-2.3558-.23333c-.2048-.03334-.4097-.2-.3755-.5.6145-2.833337 3.1752-3.66667 5.4968-3.66667 1.1608 0 2.7314.3 3.6532 1.16667 1.1608 1.06666 1.0584 2.5 1.0584 4.06666v3.66667c0 1.1.478 1.6.9218 2.2.1707.2.2049.4667 0 .6333-.5462.4-1.3998 1.1334-1.9119 1.5667z" fill-rule="evenodd"/><path clip-rule="evenodd" d="m7.13568 7.53333c0 .93334.03414 1.7-.44385 2.49997-.37556.6667-.99011 1.0667-1.67295 1.0667-.92183 0-1.4681-.7-1.4681-1.7 0-2 1.84366-2.36667 3.5849-2.36667zm2.42407 5.76667c-.17071.1333-.37556.1333-.58041.0667-.81941-.6667-.95597-.9667-1.39982-1.5667-1.33153 1.3333-2.25336 1.7-3.9946 1.7-2.04851 0-3.6190387-1.2333-3.6190387-3.66667 0-1.93333 1.0583987-3.23333 2.5947787-3.86666 1.2974-.56667 3.14106-.66667 4.54088-.83334v-.3c0-.56666.03414-1.23333-.30728-1.7-.30728-.43333-.85355-.6-1.36568-.6-.92183 0-1.74123.46667-1.94608 1.43334-.03415.2-.20486.43333-.40971.43333l-2.355787-.23333c-.204852-.03334-.409703-.2-.375561-.5.614554-2.833337 3.175198-3.66667 5.462698-3.66667 1.16083 0 2.69721.3 3.65319 1.16667 1.16087 1.06666 1.05837 2.5 1.05837 4.06666v3.66667c0 1.1.478 1.6.9219 2.2.1707.2.2048.4667 0 .6333-.5122.4-1.3999 1.1334-1.87785 1.5667z" fill-rule="evenodd"/></g></svg>

<svg width="121" height="23" viewBox="0 0 121 23" fill="none" xmlns="http://www.w3.org/2000/svg">
<path fill-rule="evenodd" clip-rule="evenodd" d="M48.4816 17.9667C43.9407 21.2333 37.3514 22.9667 31.6838 22.9667C23.7287 23 16.5931 20.1333 11.1645 15.3333C10.7548 14.9666 11.1304 14.4333 11.6425 14.7333C17.4808 18.0667 24.6847 20.0333 32.1618 20.0333C37.1807 20.0333 42.7116 19 47.7988 16.9C48.584 16.6333 49.1986 17.4333 48.4816 17.9667Z" fill="#96FF94"/>
<path fill-rule="evenodd" clip-rule="evenodd" d="M50.3595 15.8667C49.7791 15.1333 46.5356 15.5333 45.0675 15.7C44.6237 15.7667 44.5554 15.3667 44.9651 15.1C47.5599 13.3333 51.8276 13.8333 52.3056 14.4333C52.8177 15.0333 52.169 19.2 49.745 21.2C49.3694 21.5 49.028 21.3333 49.1646 20.9333C49.7108 19.6 50.9399 16.6 50.3595 15.8667Z" fill="#96FF94"/>
<path fill-rule="evenodd" clip-rule="evenodd" d="M45.1699 2.50001V0.766677C45.1699 0.50001 45.3748 0.333344 45.6138 0.333344H53.5688C53.8078 0.333344 54.0127 0.50001 54.0127 0.766677V2.26668C54.0127 2.50001 53.8078 2.83334 53.3981 3.36668L49.2669 9.10001C50.8033 9.06668 52.408 9.30001 53.8078 10.0667C54.1151 10.2333 54.2175 10.5 54.2175 10.7333V12.5667C54.2175 12.8333 53.9444 13.1 53.6371 12.9667C51.1789 11.7 47.9354 11.5667 45.2382 12.9667C44.9651 13.1 44.6578 12.8333 44.6578 12.5667V10.8C44.6578 10.5333 44.6578 10.0333 44.9651 9.60001L49.7449 2.93334H45.5796C45.3748 2.93334 45.1699 2.76668 45.1699 2.50001Z" fill="#96FF94"/>
<path fill-rule="evenodd" clip-rule="evenodd" d="M16.1492 13.3333H13.7251C13.4861 13.3333 13.3154 13.1333 13.2812 12.9333V0.833331C13.2812 0.599998 13.4861 0.399998 13.7592 0.399998H16.0126C16.2516 0.399998 16.4223 0.599998 16.4564 0.799998V2.36666H16.4906C17.071 0.833331 18.1977 0.133331 19.6658 0.133331C21.168 0.133331 22.124 0.833331 22.8068 2.36666C23.3873 0.833331 24.7188 0.133331 26.1527 0.133331C27.177 0.133331 28.2695 0.533331 28.9524 1.46666C29.7035 2.5 29.5669 3.96666 29.5669 5.26666V12.9C29.5669 13.1333 29.3621 13.3333 29.0889 13.3333H26.6649C26.4259 13.3333 26.221 13.1333 26.221 12.9V6.46666C26.221 5.96666 26.2552 4.66667 26.1527 4.2C25.982 3.4 25.4358 3.16666 24.7188 3.16666C24.1384 3.16666 23.5238 3.53333 23.2848 4.16667C23.0458 4.76666 23.0458 5.8 23.0458 6.5V12.9333C23.0458 13.1667 22.841 13.3667 22.5678 13.3667H20.1438C19.9048 13.3667 19.6999 13.1667 19.6999 12.9333V6.5C19.6999 5.13333 19.9389 3.16666 18.1977 3.16666C16.4564 3.16666 16.5247 5.1 16.5247 6.5V12.9333C16.6272 13.1333 16.4223 13.3333 16.1492 13.3333Z" fill="#96FF94"/>
<path fill-rule="evenodd" clip-rule="evenodd" d="M60.841 0.133331C64.4259 0.133331 66.372 3.13333 66.372 6.96666C66.372 10.6667 64.2211 13.6 60.841 13.6C57.3244 13.6 55.4125 10.6 55.4125 6.83333C55.4125 3.03333 57.3586 0.133331 60.841 0.133331ZM60.8752 2.6C59.0998 2.6 58.9632 4.96666 58.9632 6.43333C58.9632 7.9 58.9291 11.0667 60.841 11.0667C62.7188 11.0667 62.8213 8.53333 62.8213 6.96666C62.8213 5.93333 62.7871 4.73333 62.4457 3.76666C62.1726 2.93333 61.6263 2.6 60.8752 2.6Z" fill="#96FF94"/>
<path fill-rule="evenodd" clip-rule="evenodd" d="M71.0493 13.3333H68.6252C68.3862 13.3333 68.1814 13.1333 68.1814 12.9V0.766665C68.2155 0.533331 68.3863 0.366665 68.6594 0.366665H70.9127C71.1176 0.366665 71.2883 0.533331 71.3566 0.699998V2.56666H71.3907C72.0736 0.899998 73.0295 0.133331 74.6683 0.133331C75.7609 0.133331 76.8193 0.499998 77.5021 1.56666C78.1508 2.53333 78.1508 4.16666 78.1508 5.33333V12.9667C78.1167 13.1667 77.9118 13.3333 77.6728 13.3333H75.2488C75.0098 13.3333 74.8391 13.1667 74.8049 12.9667V6.36666C74.8049 5.03333 74.9756 3.1 73.3027 3.1C72.7223 3.1 72.176 3.46666 71.9029 4.06666C71.5614 4.8 71.5273 5.53333 71.5273 6.36666V12.9C71.4932 13.1333 71.2883 13.3333 71.0493 13.3333Z" fill="#96FF94"/>
<path fill-rule="evenodd" clip-rule="evenodd" d="M79.619 12.3667C79.619 11.7667 80.1652 11.2667 80.8139 11.2667C81.4626 11.2667 82.0089 11.7667 82.0089 12.3667C82.0089 12.9667 81.4626 13.4667 80.8139 13.4667C80.1652 13.4667 79.619 12.9667 79.619 12.3667Z" fill="#96FF94"/>
<path d="M105.259 13.3333C105.02 13.3333 104.816 13.1333 104.816 12.9V0.766659C104.816 0.566659 105.02 0.366659 105.259 0.366659H106.147C106.386 0.366659 106.591 0.533325 106.625 0.766659V2.53333C107.24 1.13333 108.435 0.0333252 109.903 0.0333252H110.005H110.108C111.678 0.0333252 112.839 1.16666 113.283 2.83333C113.966 1.19999 115.195 0.0333252 116.868 0.0333252H116.97H117.073C118.233 0.0333252 119.36 0.766659 119.975 1.89999C120.555 2.96666 120.521 4.39999 120.521 5.59999V12.9C120.521 13.1333 120.316 13.3333 120.077 13.3333H119.019C118.78 13.3333 118.609 13.1667 118.575 12.9667V5.63333C118.575 4.76666 118.609 3.83333 118.268 3.06666C117.892 2.26666 117.209 1.76666 116.424 1.73333C115.57 1.76666 114.819 2.36666 114.307 3.19999C113.658 4.23333 113.658 5.19999 113.658 6.39999V13C113.624 13.2 113.454 13.3667 113.215 13.3667H112.156C111.917 13.3667 111.712 13.1667 111.712 12.9333V5.16666C111.712 4.46666 111.678 3.59999 111.337 2.96666C110.961 2.23333 110.244 1.76666 109.527 1.73333C108.776 1.76666 107.991 2.33333 107.547 2.99999C106.967 3.83333 106.864 4.89999 106.864 5.96666V12.9333C106.864 13.1667 106.659 13.3667 106.42 13.3667H105.259V13.3333Z" fill="#96FF94"/>
<path d="M97.9532 13.5667C94.539 13.5667 93.0026 10.1667 93.0026 6.73333C93.0026 3.13333 94.8121 0.0333252 98.2605 0.0333252H98.3629H98.4653C101.845 0.0333252 103.484 3.33332 103.484 6.76666C103.484 10.4 101.641 13.5667 98.158 13.5667H98.0556H97.9532ZM98.2263 11.9333C99.353 11.9 100.241 11.2 100.787 10.0667C101.265 9.03333 101.367 7.86666 101.367 6.76666C101.367 5.53333 101.231 4.26666 100.65 3.23333C100.138 2.33333 99.2164 1.73333 98.2605 1.69999C97.2021 1.73333 96.2461 2.43333 95.7681 3.53333C95.3243 4.46666 95.1877 5.73333 95.1877 6.76666C95.1877 7.93332 95.3584 9.29999 95.8364 10.3C96.2802 11.2667 97.2021 11.9 98.2263 11.9333Z" fill="#96FF94"/>
<path d="M87.2327 11.8667C88.7691 11.8333 89.5885 10.6 89.9299 9.06668C89.9982 8.86668 90.1348 8.73335 90.3738 8.73335H91.398C91.637 8.73335 91.876 8.93335 91.8419 9.13335C91.3639 11.8 89.7251 13.6 87.4034 13.6H87.301H87.1986C83.7844 13.6 82.3163 10.2667 82.3163 6.86668C82.3163 3.50001 83.8185 0.0666809 87.1986 0.0666809H87.301H87.4034C89.7592 0.0666809 91.4663 1.83335 91.8077 4.50001C91.8077 4.70001 91.6029 4.86668 91.398 4.90001H90.3396C90.1006 4.86668 89.964 4.66668 89.9299 4.46668C89.6568 2.96668 88.8032 1.80001 87.3351 1.76668C85.0135 1.83335 84.3648 4.63335 84.3648 6.76668C84.3648 8.80001 84.9111 11.8 87.2327 11.8667Z" fill="#96FF94"/>
<path fill-rule="evenodd" clip-rule="evenodd" d="M38.8194 7.53333C38.8194 8.46667 38.8535 9.23333 38.3756 10.0333C38 10.7 37.3854 11.1 36.7026 11.1C35.7808 11.1 35.2345 10.4 35.2345 9.4C35.2345 7.4 37.0782 7.03333 38.8194 7.03333V7.53333ZM41.2435 13.3C41.0728 13.4333 40.8679 13.4333 40.6631 13.3667C39.8437 12.7 39.7071 12.4 39.2632 11.8C37.9317 13.1333 37.0099 13.5 35.2686 13.5C33.2201 13.5 31.6496 12.2667 31.6496 9.83333C31.6496 7.9 32.708 6.6 34.2444 5.96667C35.5418 5.4 37.3854 5.3 38.7853 5.13333V4.83333C38.7853 4.26667 38.8194 3.6 38.478 3.13333C38.1707 2.7 37.6244 2.53333 37.1123 2.53333C36.1905 2.53333 35.3711 3 35.1662 3.96667C35.1321 4.16667 34.9614 4.4 34.7565 4.4L32.4007 4.16667C32.1959 4.13333 31.991 3.96667 32.0252 3.66667C32.6397 0.833333 35.2004 0 37.522 0C38.6828 0 40.2534 0.3 41.1752 1.16667C42.336 2.23333 42.2336 3.66667 42.2336 5.23333V8.9C42.2336 10 42.7116 10.5 43.1554 11.1C43.3261 11.3 43.3603 11.5667 43.1554 11.7333C42.6092 12.1333 41.7556 12.8667 41.2435 13.3Z" fill="#96FF94"/>
<path fill-rule="evenodd" clip-rule="evenodd" d="M7.13568 7.53333C7.13568 8.46667 7.16982 9.23333 6.69183 10.0333C6.31627 10.7 5.70172 11.1 5.01888 11.1C4.09705 11.1 3.55078 10.4 3.55078 9.4C3.55078 7.4 5.39444 7.03333 7.13568 7.03333V7.53333ZM9.55975 13.3C9.38904 13.4333 9.18419 13.4333 8.97934 13.3667C8.15993 12.7 8.02337 12.4 7.57952 11.8C6.24799 13.1333 5.32616 13.5 3.58492 13.5C1.53641 13.5 -0.0341187 12.2667 -0.0341187 9.83333C-0.0341187 7.9 1.02428 6.6 2.56066 5.96667C3.85806 5.4 5.70172 5.3 7.10154 5.13333V4.83333C7.10154 4.26667 7.13568 3.6 6.79426 3.13333C6.48698 2.7 5.94071 2.53333 5.42858 2.53333C4.50675 2.53333 3.68735 3 3.4825 3.96667C3.44835 4.16667 3.27764 4.4 3.07279 4.4L0.717003 4.16667C0.512151 4.13333 0.3073 3.96667 0.341442 3.66667C0.955996 0.833333 3.51664 0 5.80414 0C6.96497 0 8.50135 0.3 9.45733 1.16667C10.6182 2.23333 10.5157 3.66667 10.5157 5.23333V8.9C10.5157 10 10.9937 10.5 11.4376 11.1C11.6083 11.3 11.6424 11.5667 11.4376 11.7333C10.9254 12.1333 10.0377 12.8667 9.55975 13.3Z" fill="#96FF94"/>
</svg>
